X: 3227
T: Beggarman, The
R: polka
M: 2/4
K: Cmajor
cA|:G3 A|c3 d|f3 d|e3 c|c2 A2|c d3|G4-|G2 GA|c2 ce|
g3 g|a2 gf|g2 ed|c3 c|e g3|d4|edcA:|G4-|G2z2||

